svg/u0033.svg

<svg viewBox="0 0 128 128" xmlns="http://www.w3.org/2000/svg">
  <linearGradient id="SVGID_1_" gradientTransform="matrix(1 0 0 -1 0 128)" gradientUnits="userSpaceOnUse" x1="63.9913" x2="63.9913" y1="101.5" y2="26.12">
    <stop offset="0" stop-color="#757575"/>
    <stop offset="0.5148" stop-color="#504F4F"/>
  </linearGradient>
  <path d="M55.22,60.36c0-1.11,0.9-2,2-2h5.52c3.79-0.03,6.8-1.02,9.02-2.95s3.33-4.72,3.33-8.38 c0-3.52-0.92-6.26-2.77-8.2c-1.85-1.95-4.67-2.92-8.46-2.92c-3.32,0-6.05,0.96-8.18,2.87c-1.71,1.53-2.73,3.44-3.07,5.71 c-0.15,1.01-0.97,1.78-1.99,1.78h-8.37c-1.18,0-2.13-1.01-2-2.18c0.32-2.95,1.29-5.67,2.91-8.18c2.01-3.12,4.83-5.55,8.43-7.29 C55.19,26.87,59.23,26,63.7,26c7.38,0,13.18,1.85,17.4,5.56s6.32,8.86,6.32,15.47c0,3.32-1.06,6.44-3.18,9.37 c-1.37,1.9-3,3.49-4.89,4.78c-1.2,0.82-1.12,2.66,0.16,3.36c2.4,1.3,4.33,2.98,5.79,5.04c2.12,2.98,3.18,6.54,3.18,10.67 c0,6.64-2.28,11.92-6.83,15.85c-4.54,3.94-10.53,5.9-17.95,5.9c-7.11,0-12.94-1.9-17.48-5.69c-4.01-3.35-6.24-7.67-6.71-12.97 c-0.1-1.16,0.83-2.17,2-2.17h8.38c1.02,0,1.85,0.78,1.99,1.79c0.34,2.44,1.39,4.49,3.16,6.14c2.18,2.03,5.12,3.05,8.81,3.05 c3.83,0,6.84-1.02,9.04-3.05s3.3-4.98,3.3-8.84c0-3.89-1.15-6.89-3.45-8.99s-5.72-3.15-10.26-3.15h-5.26c-1.11,0-2-0.9-2-2 L55.22,60.36L55.22,60.36z" fill="url(#SVGID_1_)"/>
</svg>

<svg viewBox="0 0 128 128" xmlns="http://www.w3.org/2000/svg">
  <defs>
    <linearGradient id="SVGID_1_" gradientTransform="matrix(1 0 0 -1 0 0)" gradientUnits="userSpaceOnUse" x1="63.9913" x2="63.9913" y1="-26.5" y2="-101.88">
      <stop offset="0" stop-color="#757575"/>
      <stop offset="0.5148" stop-color="#504F4F"/>
    </linearGradient>
  </defs>
  <path d="M55.22,60.36 C55.22,59.25 56.12,58.36 57.22,58.36 L62.74,58.36 C66.53,58.33 69.54,57.34 71.76,55.41 C73.98,53.48 75.09,50.69 75.09,47.03 C75.09,43.51 74.17,40.77 72.32,38.83 C70.47,36.88 67.65,35.91 63.86,35.91 C60.54,35.91 57.81,36.87 55.68,38.78 C53.97,40.31 52.95,42.22 52.61,44.49 C52.46,45.5 51.64,46.27 50.62,46.27 L42.25,46.27 C41.07,46.27 40.12,45.26 40.25,44.09 C40.57,41.14 41.54,38.42 43.16,35.91 C45.17,32.79 47.99,30.36 51.59,28.62 C55.19,26.87 59.23,26 63.7,26 C71.08,26 76.88,27.85 81.1,31.56 C85.32,35.27 87.42,40.42 87.42,47.03 C87.42,50.35 86.36,53.47 84.24,56.4 C82.87,58.3 81.24,59.89 79.35,61.18 C78.15,62 78.23,63.84 79.51,64.54 C81.91,65.84 83.84,67.52 85.3,69.58 C87.42,72.56 88.48,76.12 88.48,80.25 C88.48,86.89 86.2,92.17 81.65,96.1 C77.11,100.04 71.12,102 63.7,102 C56.59,102 50.76,100.1 46.22,96.31 C42.21,92.96 39.98,88.64 39.51,83.34 C39.41,82.18 40.34,81.17 41.51,81.17 L49.89,81.17 C50.91,81.17 51.74,81.95 51.88,82.96 C52.22,85.4 53.27,87.45 55.04,89.1 C57.22,91.13 60.16,92.15 63.85,92.15 C67.68,92.15 70.69,91.13 72.89,89.1 C75.09,87.07 76.19,84.12 76.19,80.26 C76.19,76.37 75.04,73.37 72.74,71.27 C70.44,69.17 67.02,68.12 62.48,68.12 L57.22,68.12 C56.11,68.12 55.22,67.22 55.22,66.12 L55.22,60.36 L55.22,60.36 Z" fill="url(#SVGID_1_)"/>
</svg>
